X: 100326
M: C|
L: 1/8
K: F
uA |\
[1 F<F A2 F<F (A>c) | G<G (A>F) D2D :|\
[2 (.f>.g)(a>c) (.A>.G)(F>A) | G<G (A>F) D2 D ||
|: ue |\
f>c d/c/B/A/ fcca | f<c(c>A) d2de |\
[1 (.f>.g) (a>c) A>GF<A | G<G (A>F) D2D :|\
[2 f>ag<a A>GF<A | G<G (A>F) "_Segue Reel"D2D "^D.C."|]


